X:166
T:Sailors Journal,Comd by Dibdin,The. JC.165
R:Song & Air
S:John Clare,Poet,Helpstone (1793-1864)
N:Song text exists. See Deacon.
O:England
A:Northamptonshire
Z:vmp.P. Headford
M:3/4
L:1/8
Q:1/4=120
K:A
A2{BA}G {c}AFD|C>.D.E.F.G.A|\
Bc{e}d3c|cBzafd|cecAGE|!
D2{EF}E Ace|{e}d>c{e}d3B|ce c A|\
(A2{BA}G) A F D|!
(C>DE) F G A|B c{e}d3c|\
c BzF D|!
(C>DE) A c e|\
A c B/A/|\
BG Ec B G|!
E3F E C|(A,>B,C) E A c|\
c Bz {c}B c/A/|!
(A2{BA}G)Ed3e|c Azafd|cecAGE|!
D2{EF}EAce|\
{e}d>c{e}d3B|cAz||!
K:D
afd|d2{ed}cdBG|{G}F>G ABcd|ef{a}g3fzfezafd|d2{ed}cdBG|!
F>GAdfa|g>f{a}g3e|fdzd/e/f e/d/|e>cAedc|A3BAF|!
D>EFAdf|fezaba|{a}g3f ef/d/|d2{ed}cdBG|F2A2G3a|fdz|]
W:NB words relate to the tune below them CGP.

